X: 26712
T: Mike Hobin's
R: mazurka
M: 3/4
K: Adorian
eAAg fdeA|~A2B/c/d egfg|dG~G2 eGdG|~G2ce dGB/c/d|
eAAg fdeg|agef gedB|GAB/c/d gbaf|gedB A2B/c/d:|
|:eaab aged|efga geaf|gedB ~G2dG|Bdge dGB/c/d|
eaab aged|efga gedB|GAB/c/d gbaf|gedB A2B/c/d:|

